X:351
T: LUSTIG IHR LEUTE SOLDATEN SIND DA
N: F0612
O: Europa, Mitteleuropa, Deutschland
R: Soldaten - Lied
M: 3/4
L: 1/8
K: C
 | G,3E,G,2 | C3D
E2 | D2G2G2 | C2E2
E2 | D2G2B,2 | C4z2 |
G,3E,G,2 | C3D
E2 | D2G2G2 | C2E2
E2 | D2G2B,2 | C4z2 |
G,2G,2C2 | A,3A,A,2 |
A,2B,2C2 | D3ED2 |
CB,A,G,G,2 | C3D
E2 | D2G2G2 | C2E2
E2 | D2G2B,2 | C4z2

@@@ Tune index: 5782
